X:385
T:Szelíd szemed, Úr Jézus
M:4/4
L:1/4
C: Lars Stenbäck 1811-1870 (finn)
O: H. Nyberg 1873-1957
K:D
(B,/C/) | D D E (D/C/) | B,2 !shortphrase!B, (D/E/) |
w: Sze-*líd sze-med, Úr* Jé-zus, Jól*
F F B (A/B/) | F E !shortphrase!F (B/c/) | d d d (c/^A/)
w: lát-ja min-den* vét-ke-met; Sze-*mé-lye-met ne
B (=A/G/) !shortphrase!F (D/E/) | F F E (D/C/) | B,2 B, |]
w: ves-se* meg Sze-*líd sze-med, Úr* Jé-zus!
W: 2. Szelíd szemed, Úr Jézus, Tekintsem rám, ha roskadok;
W:  Adjon békét, bocsánatot Szelíd szemed, Úr Jézus!
W: 3. Szelíd szemed, Úr Jézus, Tudom, hogy vádat is emel;
W:  Vétkeztem én, ítéljen el Szelíd szemed, Úr Jézus!
W: 4. Szelíd szemed, Úr Jézus, Elítél bár, lásd, én megint
W:  Csak várom, hogy majd rám tekint Szelíd szemed, Úr Jézus!

